X: 44
M:6/8
L:1/8
K:D
vABA AFA | (d2e) (f2d) | "4"ecA AGF | G3 "^tr"T(E2G) |
vfef def | "^tr"Tg3  (f/g/a)f | ecA AGF | G3  "^tr"T(E2G) |


